svg/google-fi-dark.svg

<svg xmlns="http://www.w3.org/2000/svg" xml:space="preserve" viewBox="0 0 512 512"><path d="M20.7 58.5C20.7 26.8 47.5 0 79.2 0h316.1c-19.3 12.4-32 34-32 58.5s12.8 46.1 32 58.5H79.2c-31.7 0-58.5-26.8-58.5-58.5m278 95.1H110.4c17.2 11.6 28.6 31.3 28.6 53.6s-11.4 42-28.6 53.6h185.9c29.3 0 53.6-24.4 53.6-53.6 2.4-29.2-22-53.6-51.2-53.6m-278 190.2c0 26.8 21.9 51.2 51.2 51.2h69.6c-16.3-11.2-26.9-30-26.9-51.2 0-19.8 9.3-37.4 23.7-48.8H71.9c-26.8 0-51.2 21.9-51.2 48.8m0 121.9c0 25.6 20.7 46.3 46.3 46.3s46.3-20.7 46.3-46.3-20.7-46.3-46.3-46.3-46.3 20.7-46.3 46.3m.1-258.5c0 29.6 24 53.6 53.6 53.6s53.6-24 53.6-53.6-24-53.6-53.6-53.6-53.6 24-53.6 53.6m104.8 136.6c0 28.3 22.9 51.2 51.2 51.2s51.2-22.9 51.2-51.2-22.9-51.2-51.2-51.2-51.2 22.9-51.2 51.2M374.3 58.5c0 32.3 26.2 58.5 58.5 58.5s58.5-26.2 58.5-58.5S465.1 0 432.8 0s-58.5 26.2-58.5 58.5"/></svg>

<?xml version="1.0" encoding="utf-8"?>
<!-- Generator: Adobe Illustrator 28.2.0, SVG Export Plug-In . SVG Version: 6.00 Build 0)  -->
<svg version="1.1"
	 id="Layer_1" xmlns:inkscape="http://www.inkscape.org/namespaces/inkscape" xmlns:svg="http://www.w3.org/2000/svg" xmlns:sodipodi="http://sodipodi.sourceforge.net/DTD/sodipodi-0.dtd"
	 xmlns="http://www.w3.org/2000/svg" xmlns:xlink="http://www.w3.org/1999/xlink" x="0px" y="0px" viewBox="0 0 512 512"
	 style="enable-background:new 0 0 512 512;" xml:space="preserve">
<path d="M20.7,58.5C20.7,26.8,47.5,0,79.2,0h316.1c-19.3,12.4-32,34-32,58.5s12.8,46.1,32,58.5H79.2C47.5,117,20.7,90.2,20.7,58.5z
	 M298.7,153.6H110.4c17.2,11.6,28.6,31.3,28.6,53.6c0,22.3-11.4,42-28.6,53.6h185.9c29.3,0,53.6-24.4,53.6-53.6
	C352.3,178,327.9,153.6,298.7,153.6z M20.7,343.8c0,26.8,21.9,51.2,51.2,51.2h69.6c-16.3-11.2-26.9-30-26.9-51.2
	c0-19.8,9.3-37.4,23.7-48.8H71.9C45.1,295,20.7,316.9,20.7,343.8z M20.7,465.7c0,25.6,20.7,46.3,46.3,46.3s46.3-20.7,46.3-46.3
	S92.6,419.4,67,419.4S20.7,440.1,20.7,465.7z M20.8,207.2c0,29.6,24,53.6,53.6,53.6s53.6-24,53.6-53.6s-24-53.6-53.6-53.6
	S20.8,177.6,20.8,207.2z M125.6,343.8c0,28.3,22.9,51.2,51.2,51.2s51.2-22.9,51.2-51.2s-22.9-51.2-51.2-51.2
	S125.6,315.5,125.6,343.8z M374.3,58.5c0,32.3,26.2,58.5,58.5,58.5s58.5-26.2,58.5-58.5S465.1,0,432.8,0S374.3,26.2,374.3,58.5z"/>
</svg>
